packages/icons/src/pencil-circle-dashed.svg

<svg width="16" height="16" viewBox="0 0 16 16" fill="none" xmlns="http://www.w3.org/2000/svg">
<path d="M12.8588 1.27006C13.0541 1.0748 13.3707 1.0748 13.566 1.27006L14.9802 2.68427C15.1754 2.87953 15.1754 3.19612 14.9802 3.39138L13.9195 4.45204L11.7982 2.33072L12.8588 1.27006Z" fill="currentColor"/>
<path d="M11.0913 3.0376L13.2126 5.15892L7.65371 10.7178C7.58963 10.7819 7.50934 10.8274 7.42142 10.8494L5.13158 11.4218C4.94848 11.4676 4.78263 11.3017 4.82841 11.1187L5.40087 8.82881C5.42285 8.74089 5.46831 8.6606 5.53239 8.59652L11.0913 3.0376Z" fill="currentColor"/>
<path d="M8 0C7.82427 0 7.6498 0.00567341 7.47676 0.0168556L7.54125 1.01477C7.69284 1.00498 7.8458 1 8 1C8.1542 1 8.30716 1.00498 8.45875 1.01477L8.52324 0.0168556C8.3502 0.00567344 8.17573 0 8 0Z" fill="currentColor"/>
<path d="M6.43925 0.152261C6.09355 0.220651 5.75582 0.311314 5.42763 0.422694L5.74901 1.36965C6.03585 1.2723 6.33106 1.19304 6.63332 1.13325L6.43925 0.152261Z" fill="currentColor"/>
<path d="M4.46063 0.823676C4.14639 0.978938 3.84387 1.1542 3.55472 1.34778L4.11104 2.17874C4.36411 2.00932 4.62878 1.856 4.9036 1.72021L4.46063 0.823676Z" fill="currentColor"/>
<path d="M2.72505 1.98531C2.46271 2.21556 2.21556 2.46271 1.98531 2.72505L2.73689 3.38469C2.93852 3.15496 3.15496 2.93852 3.38469 2.73689L2.72505 1.98531Z" fill="currentColor"/>
<path d="M1.34778 3.55472C1.1542 3.84387 0.978938 4.14639 0.823676 4.46063L1.72021 4.9036C1.856 4.62878 2.00932 4.36411 2.17874 4.11104L1.34778 3.55472Z" fill="currentColor"/>
<path d="M0.422694 5.42763C0.311314 5.75582 0.220651 6.09355 0.152262 6.43925L1.13325 6.63332C1.19304 6.33106 1.2723 6.03585 1.36965 5.74901L0.422694 5.42763Z" fill="currentColor"/>
<path d="M0.0168556 7.47676C0.00567344 7.6498 0 7.82427 0 8C0 8.17573 0.00567341 8.3502 0.0168556 8.52324L1.01477 8.45875C1.00498 8.30716 1 8.1542 1 8C1 7.8458 1.00498 7.69284 1.01477 7.54125L0.0168556 7.47676Z" fill="currentColor"/>
<path d="M16 8C16 7.82427 15.9943 7.6498 15.9831 7.47676L14.9852 7.54125C14.995 7.69284 15 7.8458 15 8C15 8.1542 14.995 8.30716 14.9852 8.45875L15.9831 8.52324C15.9943 8.3502 16 8.17573 16 8Z" fill="currentColor"/>
<path d="M0.152261 9.56075C0.220651 9.90645 0.311314 10.2442 0.422694 10.5724L1.36965 10.251C1.2723 9.96415 1.19304 9.66894 1.13325 9.36668L0.152261 9.56075Z" fill="currentColor"/>
<path d="M15.5773 10.5724C15.6887 10.2442 15.7793 9.90645 15.8477 9.56075L14.8668 9.36668C14.807 9.66894 14.7277 9.96415 14.6304 10.251L15.5773 10.5724Z" fill="currentColor"/>
<path d="M0.823676 11.5394C0.978938 11.8536 1.1542 12.1561 1.34778 12.4453L2.17874 11.889C2.00932 11.6359 1.856 11.3712 1.72021 11.0964L0.823676 11.5394Z" fill="currentColor"/>
<path d="M14.6522 12.4453C14.8458 12.1561 15.0211 11.8536 15.1763 11.5394L14.2798 11.0964C14.144 11.3712 13.9907 11.6359 13.8213 11.889L14.6522 12.4453Z" fill="currentColor"/>
<path d="M1.98531 13.275C2.21556 13.5373 2.46271 13.7844 2.72505 14.0147L3.38469 13.2631C3.15496 13.0615 2.93852 12.845 2.73689 12.6153L1.98531 13.275Z" fill="currentColor"/>
<path d="M13.275 14.0147C13.5373 13.7844 13.7844 13.5373 14.0147 13.275L13.2631 12.6153C13.0615 12.845 12.845 13.0615 12.6153 13.2631L13.275 14.0147Z" fill="currentColor"/>
<path d="M11.5394 15.1763C11.8536 15.0211 12.1561 14.8458 12.4453 14.6522L11.889 13.8213C11.6359 13.9907 11.3712 14.144 11.0964 14.2798L11.5394 15.1763Z" fill="currentColor"/>
<path d="M3.55472 14.6522C3.84387 14.8458 4.14639 15.0211 4.46063 15.1763L4.9036 14.2798C4.62878 14.144 4.36411 13.9907 4.11104 13.8213L3.55472 14.6522Z" fill="currentColor"/>
<path d="M5.42763 15.5773C5.75582 15.6887 6.09355 15.7793 6.43925 15.8477L6.63332 14.8668C6.33106 14.807 6.03585 14.7277 5.74901 14.6304L5.42763 15.5773Z" fill="currentColor"/>
<path d="M9.56075 15.8477C9.90645 15.7793 10.2442 15.6887 10.5724 15.5773L10.251 14.6304C9.96415 14.7277 9.66894 14.807 9.36668 14.8668L9.56075 15.8477Z" fill="currentColor"/>
<path d="M7.47676 15.9831C7.6498 15.9943 7.82427 16 8 16C8.17573 16 8.3502 15.9943 8.52324 15.9831L8.45875 14.9852C8.30716 14.995 8.1542 15 8 15C7.8458 15 7.69284 14.995 7.54125 14.9852L7.47676 15.9831Z" fill="currentColor"/>
</svg>

<svg xmlns="http://www.w3.org/2000/svg" width="16" height="16" fill="none"><path fill="currentColor" d="M12.859 1.27a.5.5 0 0 1 .707 0l1.414 1.414a.5.5 0 0 1 0 .707l-1.06 1.061-2.122-2.121zM11.091 3.038l2.122 2.12-5.56 5.56a.5.5 0 0 1-.232.131l-2.29.573a.25.25 0 0 1-.303-.303l.573-2.29a.5.5 0 0 1 .131-.232zM8 0q-.264 0-.523.017l.064.998a7 7 0 0 1 .918 0l.064-.998A8 8 0 0 0 8 0M6.44.152q-.52.104-1.012.27l.321.948q.43-.147.884-.237zM4.46.824q-.471.233-.905.524l.556.83q.38-.254.793-.458zM2.725 1.985q-.394.346-.74.74l.752.66q.303-.345.648-.648zM1.348 3.555q-.292.433-.524.906l.896.443q.205-.413.459-.793zM.423 5.428a8 8 0 0 0-.27 1.011l.98.194q.09-.453.237-.884zM.017 7.477a8 8 0 0 0 0 1.046l.998-.064a7 7 0 0 1 0-.918zM16 8a8 8 0 0 0-.017-.523l-.998.064a7 7 0 0 1 0 .918l.998.064A8 8 0 0 0 16 8M.152 9.56q.104.52.27 1.012l.948-.321a7 7 0 0 1-.237-.884zM15.577 10.572q.168-.493.27-1.011l-.98-.194q-.09.453-.237.884zM.824 11.54a8 8 0 0 0 .524.905l.83-.556a7 7 0 0 1-.458-.793zM14.652 12.445q.292-.433.524-.906l-.896-.443q-.205.413-.459.793zM1.985 13.275q.346.394.74.74l.66-.752a7 7 0 0 1-.648-.648zM13.275 14.015q.394-.346.74-.74l-.752-.66q-.302.346-.648.648zM11.54 15.176q.471-.233.905-.524l-.556-.83q-.38.254-.793.458zM3.555 14.652q.433.292.906.524l.443-.896a7 7 0 0 1-.793-.459zM5.428 15.577q.493.168 1.011.27l.194-.98a7 7 0 0 1-.884-.237zM9.56 15.848a8 8 0 0 0 1.012-.27l-.321-.948a7 7 0 0 1-.884.237zM7.477 15.983a8 8 0 0 0 1.046 0l-.064-.998a7 7 0 0 1-.918 0z"/></svg>
